X:15
T:Chutney
Z:robin.beech@mcgill.ca
C:Will Allen
R:three-two hornpipe
M:3/2
L:1/8
K:G
B2 dc B2 g2 d2 B2 | c2- cB AB AG F2 D2 | C2  E2 D2 F2 G2 AB | cd cB AB AG F2 D2  |
B2 dc B2 g2 d2 B2 | c2- cB AB AG F2 D2 | E4     F2 DF G2 AB | cB AG FG AF G4    ::
GA BA G2 DG BA GF | E2  c2 c2 B2 A2 G2 | F2- FG A2 D2 E2 F2 | G2 FG AB AG F2 D2  |
GA BA G2 DG BA GF | E2  c2 c2 B2 A2 G2 | DF  AF DF AF DF Ac | B6       F2 G2 D2 :|
